storage/app/icons/phosphoricons/light/chat-circle-dots-light.svg

<svg xmlns="http://www.w3.org/2000/svg" fill="currentColor" viewBox="0 0 256 256"><path d="M138 128a10 10 0 1 1-10-10 10 10 0 0 1 10 10m-54-10a10 10 0 1 0 10 10 10 10 0 0 0-10-10m88 0a10 10 0 1 0 10 10 10 10 0 0 0-10-10m58 10a102 102 0 0 1-150.69 89.65l-34.87 11.62a14 14 0 0 1-17.71-17.71l11.62-34.87A102 102 0 1 1 230 128m-12 0a90 90 0 1 0-167.92 45.06 6 6 0 0 1 .5 4.91l-12.46 37.38a2 2 0 0 0 2.53 2.53L78 205.42a6.2 6.2 0 0 1 1.9-.31 6.1 6.1 0 0 1 3 .81A90 90 0 0 0 218 128"/></svg>

<svg xmlns="http://www.w3.org/2000/svg" viewBox="0 0 256 256" fill="currentColor"><path d="M138,128a10,10,0,1,1-10-10A10,10,0,0,1,138,128ZM84,118a10,10,0,1,0,10,10A10,10,0,0,0,84,118Zm88,0a10,10,0,1,0,10,10A10,10,0,0,0,172,118Zm58,10A102,102,0,0,1,79.31,217.65L44.44,229.27a14,14,0,0,1-17.71-17.71l11.62-34.87A102,102,0,1,1,230,128Zm-12,0A90,90,0,1,0,50.08,173.06a6,6,0,0,1,.5,4.91L38.12,215.35a2,2,0,0,0,2.53,2.53L78,205.42a6.2,6.2,0,0,1,1.9-.31,6.09,6.09,0,0,1,3,.81A90,90,0,0,0,218,128Z"/></svg>
